packages/icons/src/gear-fill.svg

<svg width="24" height="24" viewBox="0 0 24 24" fill="none" xmlns="http://www.w3.org/2000/svg">
<path fill-rule="evenodd" clip-rule="evenodd" d="M14.7372 2.5L15.12 4.628L15.2392 4.68169C15.5601 4.8305 15.8565 4.98617 16.1328 5.15198L16.4024 5.3213L16.561 5.431L16.8454 5.30393L18.5692 4.58918L21.5327 9.44852L20.2459 10.5561L19.846 10.905L19.8724 11.1049C19.8911 11.264 19.9053 11.4152 19.9148 11.5627L19.9256 11.782L19.9292 11.999C19.9292 12.2361 19.9163 12.4712 19.8898 12.7296L19.8589 12.9968L19.845 13.092L20.1074 13.3234L21.5379 14.5427L18.5752 19.3983L16.8533 18.6982L16.571 18.572C16.2798 18.7834 15.977 18.9727 15.6631 19.1387L15.3456 19.2969L15.115 19.397L14.7376 21.5H9.14372L8.76997 19.415L8.64228 19.363C8.36331 19.2398 8.09003 19.0941 7.81924 18.925L7.54917 18.7479L7.30597 18.574L6.95688 18.7292L5.30076 19.3878L2.34442 14.5427L3.64472 13.4358L3.96897 13.151L3.93642 12.8926C3.91768 12.7334 3.90347 12.5821 3.89395 12.4346L3.88319 12.2156L3.87958 11.999C3.87958 11.7634 3.89253 11.5289 3.91894 11.2707L3.94984 11.0036L3.97097 10.848L3.81941 10.7145L2.34512 9.45516L5.30713 4.60075L7.02946 5.301L7.31097 5.426C7.60014 5.21849 7.90411 5.02936 8.21932 4.86256L8.53815 4.70335L8.76597 4.602L9.14407 2.5H14.7372ZM12 8C14.2091 8 16 9.79086 16 12C16 14.2091 14.2091 16 12 16C9.79084 16 7.99997 14.2091 7.99997 12C7.99997 9.79086 9.79084 8 12 8Z" fill="black"/>
</svg>

<svg xmlns="http://www.w3.org/2000/svg" width="24" height="24" fill="none" viewBox="0 0 24 24">
  <path fill="#000" fill-rule="evenodd" d="m14.737 2.5.383 2.128.12.054c.32.148.617.304.893.47l.27.17.158.109.284-.127 1.724-.715 2.964 4.86-1.287 1.107-.4.349.026.2c.02.159.033.31.043.458l.01.219.004.217c0 .237-.013.472-.04.73l-.03.268-.014.095.262.231 1.43 1.22-2.962 4.855-1.722-.7-.282-.126c-.291.211-.594.4-.908.567l-.317.158-.231.1-.377 2.103H9.144l-.374-2.085-.128-.052a6.539 6.539 0 0 1-.823-.438l-.27-.177-.243-.174-.35.155-1.655.659-2.957-4.845 1.3-1.107.325-.285-.033-.258a8.704 8.704 0 0 1-.042-.458l-.01-.22L3.88 12c0-.236.013-.47.039-.728l.03-.267.022-.156-.152-.134-1.474-1.259 2.962-4.854 1.722.7.282.125a7.89 7.89 0 0 1 .908-.563l.32-.16.227-.101.378-2.102h5.593ZM12 8a4 4 0 1 1 0 8 4 4 0 0 1 0-8Z" clip-rule="evenodd"/>
</svg>
